!!!!SEGMENT: 029-1e-W.krn
!!!COM: Chopin, Fryderyk
!!!OTL: IMPROMPTU
!!!OPS: op. 29
!!!OPR: N|o. 30 OF | WESSEL & C|o..'s COMPLETE COLLECTION | OF | the Compositions | OF | FREDERIC CHOPIN | FOR THE | PIANO FORTE
!!!PPR: Wessel & Co.
!!!PPP: London
!!!NIFC-rismID: 1001015282
!!!NIFC-shelfmark: PL-Wnifc 4975/n
!!!OMD: Allegro assai \nquasi Presto.
**kern	**kern	**fing	**dynam
*part1	*part1	*	*part1
*staff2	*staff1	*	*
*	*I"IMPROMPTU.	*	*
*clefF4	*clefG2	*	*
*k[b-e-a-d-]	*k[b-e-a-d-]	*	*
*A-:	*A-:	*	*
*M4/4	*M4/4	*	*
*met(c|)	*met(c|)	*	*
=1	=1	=1	=1
*Xtuplet	*Xtuplet	*	*
*ped	*	*	*
!	!LO:TX:i:a:t=Legato.	!	!
!	!LO:TX:t=P:nie wyświetla się !!!OMD:problem	!	!
12AA-L\	(>12e-^<M>L/	.	.
12c	12dn	.	.
12E-J	12e-	.	.
*Xped	*	*	*
.	.	.	<
12DnL\	12cc/	.	.
12c	12b-	.	.
12E-J	12a-J	.	.
*ped	*	*	*
12BB-L\	12gL/	.	.
12d-X	12ff	.	.
12E-J	12eenJ	.	.
*Xped	*	*	*
.	.	.	.
12DnL\	4ee-X/)	.	[
12d-X	.	.	.
12E-J	.	.	.
=2	=2	=2	=2
*ped	*	*	*
12AA-L\	(>12e-L/	.	.
12c	12dn	.	.
12E-J	12e-	.	.
*Xped	*	*	*
.	.	.	.
12DnL\	12cc/	.	<
12c	12b-	.	.
12E-J	12a-J	.	.
*ped	*	*	*
12BB-L\	12gL/	.	.
12d-X	12ff	.	.
12E-J	12eenJ	.	.
*Xped	*	*	*
.	.	.	.
12DnL\	4ee-X/)	.	.
.	.	.	[
12d-X	.	.	.
12E-J	.	.	.
=3	=3	=3	=3
*ped	*	*	*
12CL\	(>12ee-M>L\	.	.
12e-	12ddn	.	.
*Xped	*	*	*
12A-J	12ee-J	.	>
*ped	*	*	*
12CL\	12cccL\	.	.
12en	12gg	.	.
*Xped	*	*	*
12A-J	12bb-J	.	.
*ped	*	*	*
12D-L\	12aa-L\	.	.
12f	12een	.	.
12B-J	12ggJ	.	]
12A-L\	12ffL\	.	.
.	.	.	.
12f	12cc	.	.
*Xped	*	*	*
12B-J	12eeJ	.	.
!!LO:LB:g=original
=4	=4	=4	=4
*^	*	*	*
2ryy	12D-L\	12dd-L/	.	.
.	12d-	12f	.	.
.	12B-J	12gJ	.	.
.	12FL\	12a-L/	.	.
.	12d-	12cc	.	.
.	12B-J	12b-J	.	.
!	!LO:N:vis=3	!	!	!
2E-/	12E-L\	12a-L/	.	.
.	12d-	12f	.	.
.	12B-J	12a-J	.	.
.	12GL\	12gL/	.	.
.	12d-X	12dn	.	.
.	12B-J	12fJ)	.	.
*v	*v	*	*	*
=5	=5	=5	=5
12AA-L\	(>12e-^<M>L/	.	.
12c	12dn	.	.
12E-J	12e-	.	.
.	.	.	<
12DnL\	12cc\	.	.
12c	12b-	.	.
12E-J	12a-J	.	.
12BB-L\	12gL/	.	.
12d-X	12ff	.	.
12E-J	12eenJ	.	.
12DnL\	4ee-X/)	.	[
12d-X	.	.	.
12E-J	.	.	.
=6	=6	=6	=6
12AA-L\	(>12e-^<M>L/	.	.
12c	12dn	.	.
12E-J	12e-	.	.
12DnL\	12cc\	.	<
12c	12b-	.	.
12E-J	12a-J	.	.
12BB-L\	12gL/	.	.
12d-X	12ff	.	.
12E-J	12eenJ	.	.
12DnL\	4ee-X/)	.	.
12d-X	.	.	[
12E-J	.	.	.
!!LO:LB:g=original
=7	=7	=7	=7
*ped	*	*	*
12C-XL\	(12ee-M>L\	.	.
12e-	12ddn	.	.
12AnJ	12ee-J	.	.
12F#XL\	12eenL\	.	.
12e-	12ff	.	.
*Xped	*	*	*
12AJ	12ff#XJ	.	.
*ped	*	*	*
12BB-L\	12ggL\	.	.
.	.	.	.
12e-	12ggg	.	.
12B-J	12dddnyJ	.	.
12GL\	12eee-L\	.	.
12e-	12bbn	.	.
*Xped	*	*	*
12B-J	12cccJ	.	.
=8	=8	=8	=8
*^	*	*	*
12ryy	12BB-L\	12ggL\	.	.
12ryy	12dn	12bb-	.	.
12ryy	12B-J	12aa-J	.	.
12ryy	12A-XL\	12ffL\	.	.
12ryy	12d	12cc	.	.
12ryy	12B-J	12ddnJ	.	.
12ryy	12E-L\	12ee-L\	.	.
12ryy	12g	12b-	.	.
12ryy	12e-J	12bnJ	.	.
.	.	.	.	.
4B-/	12B-L\	12ccL\	.	.
.	12g	12cc#X	.	.
.	12e-J	12ddJ	.	.
=9	=9	=9	=9	=9
4c/	12cL\	12ee-L\	.	.
.	12g-X	12een	.	.
.	12e-J	12ffJ	.	.
4B-/	12B-L\	[>4gg-X)	.	.
.	12g-	.	.	.
.	12e-J	.	.	.
4An/	12AnL\	(>12gg-L\]	.	<
.	12f	12ee	.	.
.	12e-J	12ffJ	.	.
4B-/	12B-L\	[>4ccc	.	[
.	12g-	.	.	.
.	12e-J	.	.	.
!!LO:LB:g=original
=10	=10	=10	=10	=10
4An/	12AnL\	12cccL\]	.	>
.	12f	12ee-	.	.
.	12cJ	12ffJ	.	.
.	.	16qqaa-X/	.	.
4F/	12FL\	12gg-XL\	.	.
.	12f	12ff	.	.
.	12cJ	12ee-J	.	.
.	.	.	.	]
.	.	.	.	.
4B-/	12B-L\	12ffL\	.	.
.	12f	12cc	.	.
.	12d-J	12ee-J	.	.
4A-X/	12A-XL\	[>\4dd-)	.	.
.	12f-X	.	.	.
.	12B-J	.	.	.
=11	=11	=11	=11	=11
4G/	12GL\	(>12dd-L\]	.	<
.	12e-	12cc	.	.
.	12B-J	12dd-J	.	.
4A-/	12A-L\	[>\4ff-X)	.	.
.	.	.	.	[
.	.	.	.	.
.	12f-X	.	.	.
.	12c-XJ	.	.	.
4G/	12GL\	12ff-L\]	.	<
.	12e-	(>12ddn	.	.
.	12B-J	12ee-J	.	.
4F/	12FL\	[>\4bb-	.	.
.	.	.	.	[
.	12dn	.	.	.
.	12A-J	.	.	.
=12	=12	=12	=12	=12
4F-X/	12F-XL\	12bb-L\]	.	>
.	12d-X	12dd-X	.	.
.	12A-J	12ee-J	.	.
.	.	16qqgg/	.	.
4E-/	12E-L\	12ffL\	.	.
.	12d-	12ee-	.	.
.	12GJ	12dd-J	.	.
4AA-/	12AA-L\	12ee-L\	.	.
.	12c	12b-	.	]
.	12A-J	12dd-J	.	.
.	.	.	.	.
4En/	12EnL\	[>\4cc^<)	.	.
.	12c	.	.	.
.	12A-J	.	.	.
!!LO:LB:g=original
=13	=13	=13	=13	=13
4F/	12FL\	(>12ccL/]	.	.
.	12c	12g	.	.
.	12A-J	12a-J	.	.
4BB-/	12BB-L\	12ccL/	.	.
.	12dn	12b-	.	.
.	12A-J	12a-J	.	.
.	.	.	.	.
4E-/	12E-L\	12gL/	.	<
.	12e-	12b-	.	.
.	12B-J	12ccJ	.	.
4G/	12GL\	12dd-L\	.	.
.	12e-	12ff	.	.
.	12B-J	12ee-J	.	[
=14	=14	=14	=14	=14
4A-/	12A-L\	12ccL/	.	>
.	12e-	12g	.	.
.	12cJ	12a-J	.	.
4F/	12FL\	12ccL/	.	.
.	12dn	12b-	.	]
.	12B-J	12a-J	.	.
4E-/	12E-L\	12gL/	.	.
.	12e-	12b-	.	<
.	.	.	.	.
.	12B-J	12ccJ	.	.
4G/	12GL\	12dd-L\	.	.
.	12e-	12ff	.	.
.	12B-J	12ee-J	.	[
=15	=15	=15	=15	=15
*	*	*^	*	*
4A-/	12A-L\	4ryy	12ccL\	.	.
.	12e-	.	12bn	.	.
.	12cJ	.	12ccJ	.	.
!	!	!	!	!	!LO:DY:a
4A-/	12A-L\	4ff-X^>/	12ff-XL\	.	>
.	12f-X	.	12b-X	.	.
.	12c-XJ	.	12cc-XJ	.	.
4G/	12GL\	4ee-^>/	12ee-L\	.	.
.	12e-	.	12an	.	.
.	12B-J	.	12b-J	.	.
4G-	12G-XL\	4ee--^>/	12ee--L\	.	.
.	12e--	.	12a-X	.	.
.	.	.	.	.	.
.	12B--J	.	12b--J	.	]
!!LO:PB:g=original
=16	=16	=16	=16	=16	=16
4F/	12FL\	4dd-^>/	12dd-L\	.	.
.	12d-	.	12g	.	.
.	12A-J	.	12a-J	.	.
4G-/	12G-XL\	4ee--^>/	12ee--L\	.	>
.	12e--	.	12a-	.	.
.	12B--J	.	12b--J	.	.
4F/	12FL\	4dd-^>/	12dd-L\	.	.
.	12d-	.	12g	.	.
.	12A-J	.	12a-J	.	.
4En/	12EnL\	4cc^>/	12ccL\	.	]]
.	12c	.	12f#X	.	.
.	12GnJ	.	12gJ	.	.
=17	=17	=17	=17	=17	=17
4D#X/	12D#XL\	4bn^>/	12bnL\	.	.
.	12Bn	.	12fn	.	.
.	12F#XJ	.	12f#XJ	.	.
4En/	12EnL\	4ccn^>/	12ccnL\	.	>
.	12c	.	12f#X	.	.
.	12GJ	.	12gnJ	.	.
4E-X/	12E-XL\	4cc-X^>/	12cc-XL\	.	.
.	12c-X	.	12fn	.	.
.	12G-XJ	.	12g-XJ	.	]
4Dn/	12DnL\	4b-^>/	12b-L\	.	.
.	12B-X	.	12en	.	.
.	12FnJ	.	12fJ)	.	.
*	*	*v	*v	*	*
*v	*v	*	*	*
=18	=18	=18	=18
12D-XL\	(>12fL/	.	<
12B-	12g	.	.
12FJ	12a-J	.	.
12BB-L\	12b-L/	.	.
12d-	12cc	.	.
12FJ	12dd-J	.	.
12E-L\	4cc/	.	[
12c	.	.	.
12A-J	.	.	.
12E-L\	4b-/)	.	.
12d-	.	.	.
12GJ	.	.	.
!!LO:LB:g=original
=19	=19	=19	=19
12AA-L\	(>12e-^<M>L/	.	.
12c	12dn	.	.
12E-J	12e-	.	.
12DnL\	12cc\	.	.
12c	12b-	.	.
12E-J	12a-J	.	.
12BB-L\	12gL/	.	.
12d-X	12ff	.	.
12E-XJ	12eenJ	.	.
12DnL\	4ee-X/)	.	.
12d-X	.	.	.
12E-J	.	.	.
=20	=20	=20	=20
12AA-L\	(>12e-^<M>L/	.	.
12c	12dn	.	.
12E-J	12e-	.	.
12DnL\	12cc\	.	.
12c	12b-	.	.
12E-J	12a-J	.	.
12CL\	12anL/	.	.
12e-	12gg-X	.	.
.	.	.	.
12AnJ	12eenJ	.	.
.	.	.	.
12FL\	4ff/)	.	.
12e-	.	.	.
12AJ	.	.	.
=21	=21	=21	=21
*ped	*	*	*
!	!LO:TX:i:b:t=Cre_scen_do_:problem:dynamics with extention lines 	!	!
!	!	!	!LO:HP:i:b:t=Cre-scen-do-:ext=ud
12Dn^^>L\	(>12b-^^>M>L\	.	<
12f	12an	.	.
*Xped	*	*	*
12B-J	12b-	.	.
*ped	*	*	*
12E-^^>L\	12aa-X	.	.
12g	12ff#X	.	.
12B-J	12ggJ	.	.
*Xped	*	*	*
.	.	.	.
*ped	*	*	*
12En^^>L\	12cc^^>m>L\	.	.
12g	12bn	.	.
12cJ	12cc	.	.
*Xped	*	*	*
.	.	.	.
*ped	*	*	*
12F^^>L\	12bb-X	.	.
12a-	12gg	.	.
12cJ	12aa-J)	.	.
*clefG2	*	*	*
*Xped	*	*	*
!!LO:LB:g=original
=22	=22	=22	=22
*ped	*	*	*
!LO:TX:t=P:problem:w źródle Ped. umiejscowione przed nutą	!	!	!
12G^^<L/	(>^^>12ddnL\	.	.
12dd-	12ee-	.	.
12gJ	12ffJ	.	.
12e-L/	12ggL\	.	.
12dd-	12aa-	.	.
12gJ	12aanJ	.	.
12B-L/	12bb-L\	.	.
12dd-	12ccc	.	.
12gJ	12ddd-XJ	.	.
12e-L/	12dddnL\	.	.
12dd-	12fff	.	.
12gJ	12eee-J	.	[[
*Xped	*	*	*
=23	=23	=23	=23
*	*8va	*	*
*	*ped	*	*
!	!LO:TX:a:t=+:problem	!	!
12A-^^<L/	12eee-L\	.	f
12cc	12cccc^^>	.	.
!	!LO:TX:a:t=+:problem	!	!
12a-J	12ddd-J	.	.
12e-L/	12bbb-^^>L\	.	.
!	!LO:TX:a:t=+:problem	!	!
12cc	12ccc	.	.
*	*Xped	*	*
12a-J	12aaa-^^>J	.	.
*clefF4	*	*	*
*	*ped	*	*
!	!LO:TX:a:t=+:problem	!	!
12C^^>L\	12bb-L\	.	.
12en	12ggg^^>	.	.
!	!LO:TX:a:t=+:problem	!	!
12cJ	12aa-J	.	.
12B-L\	12fff^^>L\	.	.
!	!LO:TX:a:t=+:problem	!	!
12e	12gg	.	.
*Xped	*	*	*
12cJ	12eeen^^>J	.	.
=24	=24	=24	=24
*ped	*	*	*
12F^^>L\	12cccL\	1	.
12f	12aaa-^^>	.	.
!	!LO:TX:a:t=+:problem	!	!
12cJ	12bb-J	.	.
12A-L\	12ggg^^>L\	.	.
!	!LO:TX:a:t=+:problem	!	!
12f	12aa-	.	.
*Xped	*	*	*
!	!LO:TX:b:i:t=poco\ ritenuto.:dur=2q:ext=s:problem	!	!
12cJ	12fff^^>J	.	.
*	*X8va	*	*
*ped	*	*	*
!	!LO:TX:a:i:t=loco.	!	!
12AA^^>nL\	12gg-XL\	.	.
12c	12eee-^^>	.	.
12G-XJ	12ffJ	.	.
12E-L\	12ddd-^^>L\	.	.
12c	12ee-	.	.
12G-J	12ccc^^>J	.	.
*Xped	*	*	*
!!LO:LB:g=original
=25	=25	=25	=25
*	*	*	*^
*ped	*	*	*	*
12BB-^^>L\	12eee-L\	.	>	.
12d-	12ddd-	.	.	.
*Xped	*	*	*	*
!	!LO:TX:b:t=P:problem:w źródle "Dim." nad diminuendem graficznym	!	!	!
12FJ	12fffJ	3	.	>
*ped	*	*	*	*
12C^^>L\	12ddd-L\	1	.	.
!	!LO:TX:a:t=+:problem	!	!	!
12e-	12ccc	.	.	.
.	.	.	.	.
12AnJ	12eee-J	.	.	.
*Xped	*	*	*	*
.	.	.	.	.
*ped	*	*	*	*
12D-^^>L\	12cccL\	1	.	.
!	!LO:TX:a:t=+:problem	!	!	!
12f	12bb-	.	.	.
12B-J	12ddd-J	.	.	.
!	!LO:TX:a:i:t=acce_le_rando.:dur=6q:ext=ud:problem:text with line extensions	!	!	!
12A-XL\	12bb-L\	.	.	.
!	!LO:TX:a:t=+:problem	!	!	!
12f	12aa-	.	.	.
12B-J	12cccJ	.	.	.
=26	=26	=26	=26	=26
12D-L\	12aa-L\	.	.	.
12f	12gg	.	.	.
12B-J	12bb-J	.	.	.
12A-L\	12ggL\	.	.	.
12f	12ff	.	.	.
12B-J	12aa-J	.	.	.
12D-L\	12ffL\	.	]	.
12f	12ee-	.	.	.
12B-J	12ggJ	.	.	.
12A-L\	12ee-L\	.	.	.
12f	12dd-	.	.	.
12B-J	12ffJ	.	.	.
*Xped	*	*	*	*
.	.	.	.	.
*	*	*	*v	*v
=27	=27	=27	=27
*^	*	*	*
4ryy	12E-L\	12dd-L\	.	p
.	12e-	12cc	.	.
.	12A-J	12ee-J	.	.
*	*ped	*	*	*
4Dn	12DnL\	12dd--L\	.	.
.	12f-X	12cc-X	.	.
*	*Xped	*	*	*
.	12A-J	12ff-XJ	.	.
4E-	12E-L\	12dd-XL\	.	.
.	12e-	12ccn	.	.
.	12A-J	12ee-J	.	.
*	*ped	*	*	*
4Dn	12DnL\	12dd--L\	.	.
.	12f-	12cc-X	.	.
*	*Xped	*	*	*
.	12A-J	12ff-J	.	.
!!LO:LB:g=original
=28	=28	=28	=28	=28
*	*	*^	*	*
4E-/	12E-L\	4ryy	12dd-XL\	.	.
.	12e-	.	12ccn	.	.
.	12A-J	.	12ee-J	.	.
*ped	*	*	*	*	*
4Dn/	12DnL\	12ryy	12dd--L\	.	.
.	12f-X	12ryy	12cc-X	.	.
*Xped	*	*	*	*	*
.	12A-J	4ff-/	12ff-XJ	.	.
4E-	12E-L\	.	12dd-XL\	.	.
.	12e-	.	12ccn	.	.
!	!	!LO:N:vis=6	!	!	!
.	12A-J	12ee-/	12ee-J	.	.
*ped	*	*	*	*	*
!	!	!LO:N:vis=6	!	!	!
4Dny	12DnyL\	12dd--/	12dd--L\	.	.
.	12f-	12	12cc-X	.	.
*Xped	*	*	*	*	*
!	!	!LO:N:vis=6	!	!	!
.	12A-J	12ff-X/	12ff-XJ	.	.
=29	=29	=29	=29	=29	=29
4E-/	12E-L\	12ryy	12dd-XL\	.	.
.	12e-	12ryy	12ccn	.	.
.	12A-J	4ee-/	12ee-J	.	.
*ped	*	*	*	*	*
4Dn/	12DnL\	.	12dd--L\	.	.
.	12f^>-X	.	12cc-X	.	.
*Xped	*	*	*	*	*
!	!LO:TX:a:i:t=Amorzando.	!	!	!	!
.	12A-J	4ryy	12ff-XJ	.	.
4ryy	12E-L\	.	12dd-XL\	.	.
.	12e-	.	12ccn	.	.
.	12A-J	4ryy	12ee-J	.	.
*ped	*	*	*	*	*
4ryy	12DnyL\	.	12dd--L\	.	.
.	12f-^>	.	12cc-	.	.
!	!	!LO:N:vis=6	!	!	!
*Xped	*	*	*	*	*
.	12A-J	12ryy	12ff-J	.	.
=30	=30	=30	=30	=30	=30
4ryy	12E-L\	12ryy	12dd-XL\	.	.
.	12e-	12ryy	12ccn	.	.
.	12A-J	6ryy	12ee-J	.	.
*ped	*	*	*	*	*
4ryy	12DnL\	.	12dd--L\	.	.
.	12en^>	12ryy	12cc-	.	.
*Xped	*	*	*	*	*
.	12A-J	12ryy	12eenJ	.	.
2ryy	8f`>\	8ryy	8ff`>\)	.	.
.	8r;>	8r;>	8ryy	.	.
.	4B-\ 4E-X\	(>4g^< (<4d-X/	4ryy	.	.
*v	*v	*	*	*	*
!!LO:LB:g=original
=31	=31	=31	=31	=31
12AA-L\	8a-/) 8c/)	4ryy	.	.
12c	.	.	.	.
.	8r	.	.	.
12E-J	.	.	.	.
.	.	.	.	p
12DnL\	(>12ccL/	4g	.	.
12d-X	12dd-	.	.	.
12E-J	12b-J	.	.	.
12AA-L\	4ee-^>/	12a-L	.	.
12c	.	12e-	.	.
12E-J	.	12a-J	.	.
12DnL\	12ccL/	4g	.	.
12d-X	12dd-	.	.	.
12E-J	12b-J	.	.	.
=32	=32	=32	=32	=32
12AA-L\	4ee-^>/	12a-L	.	.
12c	.	12e-	.	.
12E-J	.	12a-J	.	.
12DnL\	12ccL/	4g	.	.
12d-X	12dd-	.	.	.
12E-J	12b-J	.	.	.
12AA-L\	4ee-^>/	12a-L	.	.
12c	.	12e-	.	.
12E-J	.	12a-J	.	.
12DnL\	12ccL/	4g	.	.
12d-X	12dd-	.	.	.
12E-J	12b-J)	.	.	.
*	*v	*v	*	*
=33	=33	=33	=33
!	!	!	!LO:DY:rj
4c:\ 4E-:\ 4AA-:\	(>12aa-^^>L\ 12a-	.	f
.	12ff	.	.
.	12ee-J	.	.
4rD	12dd-L\	.	.
.	12cc	.	.
.	12b-J	.	.
2rD	12a-L/	.	.
.	12f	.	.
.	12e-J	.	.
.	12d-L/	.	.
.	12c	.	.
.	12B-J	.	.
=34	=34	=34	=34
2rGG	12A-<L/	.	.
.	12F<	.	.
.	12E-<J	.	.
.	12D-<L/	.	.
.	12C<	.	.
.	12BB-<J	.	.
!	!LO:TX:b:t=P:problem:w źródle łuk kończy się na 4GG	!	!
4rBBB	4AA-</)	.	.
!	!LO:TX:b:t=P:problem:w źródle brak laski przy nucie	!	!
4GG<\^^>)	4r	.	.
!!LO:PB:g=original
=35	=35	=35	=35
!	!LO:TX:a:i:t=Sostenuto.	!	!
4rD	(>/2c	.	f
*ped	*	*	*
.	.	.	.<
(>/4FF'<	.	.	.
.	.	.	.
4A-\ 4C\	2f/	.	.
*Xped	*	*	*
4FF'</	.	.	.
=36	=36	=36	=36
*ped	*	*	*
4B-\ 4En\ 4C\	2g/	.	.
4CC'</	.	.	.
*Xped	*	*	*
.	.	.	.
4A-\ 4F\ 4C\	2a-/	.	[
4FF'</)	.	.	.
=37	=37	=37	=37
4rD	2b-/	.	]
*ped	*	*	*
(>/4EE-X'<	.	.	.
4d-\ 4G\ 4E-\	4.a-/	.	.
4EE-'</	.	.	.
.	8b-\	.	.
*Xped	*	*	*
.	.	.	.
=38	=38	=38	=38
*	*2\right	*	*
4c\ 4A-\ 4E-\	2cc\)	.	.
*ped	*	*	*
4AA-'</	.	.	.
4f\ 4dn\ 4G\	(>\2bn	.	.
4GG'<)	.	.	.
*Xped	*	*	*
.	.	.	.
=39	=39	=39	=39
4rD	2cc\	.	.
(>/4C'<	.	.	.
*ped	*	*	*
4f\ 4Bn\ 4G\	4.ddn\	.	.
4GG'</	.	.	.
*Xped	*	*	*
.	8ee-\	.	.
=40	=40	=40	=40
4e-\ 4G\	2cc\)	.	.
4C'</	.	.	.
*ped	*	*	*
4e-\ 4An\ 4F\	(>2dd-X^<\	.	.
4FF'</)	.	.	.
*Xped	*	*	*
.	.	.	.
!!LO:LB:g=original
=41	=41	=41	=41
4rD	2b-\	.	.
(>/4BB-'<	.	.	.
*ped	*	*	*
4e-\ 4An\ 4F\	4cc\	.	.
.	8qqee-/	.	.
4FF'</	4dd-\	.	.
*Xped	*	*	*
.	.	.	.
=42	=42	=42	=42
4d-\ 4B-\ 4F\	2b-\	.	.
.	.	.	>
4BB-'</	.	.	.
.	.	.	.
*ped	*	*	*
4c\ 4B-\ 4En\	4.a-/	.	.
4C'</)	.	.	.
*Xped	*	*	*
.	8g/	.	]
=43	=43	=43	=43
4rD	2c/	.	.
(>/4FF'<	.	.	<
.	.	.	.
*ped	*	*	*
4A-\ 4C\	2f/	.	.
4FF'</	.	.	.
*Xped	*	*	*
.	.	.	.
=44	=44	=44	=44
*ped	*	*	*
4B-\ 4En\ 4C\	2g/	.	.
4CC'</	.	.	.
*Xped	*	*	*
.	.	.	.
4A-\ 4F\ 4C\	2a-/	.	.
.	.	.	.
4FF'</)	.	.	[
=45	=45	=45	=45
4rD	1b-	.	.
!LO:TX:t=P:złe dopasowanie nut górnej pięciolinii względem nut dolnej pięciolinii:problem	!	!	!
/4EE-'<	.	.	.
*ped	*	*	*
4d-\ 4G\ 4E-\	.	.	.
4EE-'</	.	.	.
*Xped	*	*	*
.	.	.	.
.	8qqb-L/	.	.
.	8qqb-	.	.
.	8qqb-	.	.
.	8qqcc	.	.
.	8qqb-	.	.
.	8qqa-	.	.
.	8qqb-J	.	.
!!LO:LB:g=original
=46	=46	=46	=46
4c\ 4A-\ 4E-\	(>2cc\)	.	.
4AA-'</	.	.	.
!	!LO:TX:i:a:t=Ritenuto.	!	!
*ped	*	*	*
\4dn 4Bn\ 4F\	\2ddn	.	.
4GG#X'</	.	.	.
*Xped	*	*	*
.	.	.	.
=47	=47	=47	=47
*ped	*	*	*
!	!	!	!LO:DY:rj
4dn\ 4Bn\ 4En\	2een\	.	p
4GG#X'</	.	.	.
*Xped	*	*	*
.	.	.	.
*ped	*	*	*
4c\ 4An\ 4E\	4.ddn\	.	.
4AAn'</	.	.	.
*Xped	*	*	*
.	8cc\	.	.
=48	=48	=48	=48
*ped	*	*	*
4dny\ 4An\ 4F\	2ddn\)	.	.
4FF'</	.	.	.
*Xped	*	*	*
.	.	.	.
*ped	*	*	*
!LO:TX:t=P:złe dopasowanie nut górnej pięciolinii względem nut dolnej pięciolinii:problem	!	!	!
\4f 4Bn\ 4G\	(</2g^<	.	.
4GG'</	.	.	.
*Xped	*	*	*
.	.	.	.
.	8qqg/L	.	.
.	8qqan/	.	.
.	8qqg/	.	.
.	8qqf#X/	.	.
.	8qqg/	.	.
.	8qqbbn/	.	.
.	8qqaany/	.	.
.	8qqgg/	.	.
.	8qqffn/	.	.
.	8qqddny/	.	.
.	8qqeen/	.	.
.	8qqa/	.	.
.	8qqbny/J	.	.
=49	=49	=49	=49
*^	*	*	*
!	!	!LO:TX:i:a:t=ten.	!	!
*ped	*	*	*	*
*2\right	*	*	*	*
4en 4c	2G	[>1cc)	.	.
4C	.	.	.	.
*Xped	*	*	*	*
.	.	.	.	.
(>4f	2A-	.	.	.
4C	.	.	.	.
=50	=50	=50	=50	=50
!LO:TX:a:t=P:note position:4d- przed 4c:problem	!	!	!	!
4d- 4B-	2F	2..cc\]	.	.
4C	.	.	.	.
!LO:TX:a:t=P:note position:4f 4c przed 2A-:problem	!	!	!	!
4f 4c	2A-	.	.	.
4C)	.	.	.	.
.	.	(>\8cc	.	.
*v	*v	*	*	*
!!LO:LB:g=original
=51	=51	=51	=51
*	*	*	*^
*ped	*	*	*	*
!	!	!	!	!LO:HP:a
(>/4CC'<	4dd-\	.	f	<
.	.	.	.	.
4c\	4cc\	.	.	.
4en\ 4B-\ 4G\	4ff\	.	.	.
*Xped	*	*	*	*
4c\)	4gg\	.	.	[
.	.	.	.	.
*	*	*	*v	*v
=52	=52	=52	=52
*^	*	*	*
(>4A-	1F	2.aa-\)	.	]
4c/	.	.	.	.
4f/ 4A-/	.	.	.	.
4c/)	.	(>4cc\	.	.
=53	=53	=53	=53	=53
*	*	*tuplet	*	*
!	!	!LO:TUP:a	!	!LO:DY:rj
(>/4B- 4G/	1F	\6dd-M>^<	.	p
!	!	!	!	!LO:HP:a
.	.	.	.	<
.	.	6cc\	.	.
4c/	.	.	.	.
.	.	6ddn\	.	.
!	!	!LO:TUP:a	!	!
4en/ 4B-/	.	6een\	.	.
.	.	6ff\	.	.
4c/)	.	.	.	.
.	.	6gg\	.	[
=54	=54	=54	=54	=54
*ped	*	*	*	*
!LO:TX:a:t=P:note position:(>/4A- przed 1F:problem	!	!	!	!
(>/4A-	1F	1aa-)	.	.
4c/	.	.	.	.
4f/ 4A-/	.	.	.	.
*Xped	*	*	*	*
4c/)	.	.	.	.
*v	*v	*	*	*
=55	=55	=55	=55
*	*^	*	*
*ped	*	*	*	*
(>/4DD-'<	(>4gg/	1a-	.	>
4B-\	4ff/	.	.	.
4f\ 4A-\	&4a-/	.	.	]
4B-\)	(>4b-/	.	.	.
*Xped	*	*	*	*
.	.	.	.	.
!!LO:LB:g=original
=56	=56	=56	=56	=56
*ped	*	*	*	*
(>/4EE-'<	2cc/))	2a-&)	.	.
4E-\	.	.	.	.
!	!	!	!	!LO:HP:a
4a-\ 4c\	(>\2ee-/	2cc\	.	>
4E-\)	.	.	.	.
*Xped	*	*	*	*
.	.	.	.	.
=57	=57	=57	=57	=57
*ped	*	*	*	*
(>/4EE-'<	2ee-:/ 2cc:/	2g:\	.	.
4E-\	.	.	.	.
4g\ 4d-\	4.dd-\ 4.b-\	2ryy	.	]
4E-\)	.	.	.	.
*Xped	*	*	*	*
.	8cc\ 8a-\	.	.	.
*	*v	*v	*	*
=58	=58	=58	=58
!	!LO:TX:a:t=P:diminuendolike accent:problem	!	!
.	16qqc^>/	.	.
.	(<8qqc/L/	.	.
.	8qqe-/	.	.
.	[<8qqa-/J	.	.
*ped	*	*	*
!LO:TX:t=P:problem:w źródle Ped. pod 16qqc	!	!	!
(>/4AAA-'<	2cc/ 2a-/]))	.	.
4E-\	.	.	.
4c\ 4A-\ 4C\	4rb	.	]
4E-\)	8rb	.	.
*Xped	*	*	*
.	(>8cc\	.	.
=59	=59	=59	=59
*ped	*	*	*
!	!	!	!LO:DY:rj
(>4CC'</	4dd-^>\	.	f
4c\	4cc\	.	<
4en\ 4B-\ 4G\	4ff\	.	.
4c\)	4gg\	.	.
*Xped	*	*	*
.	.	.	.
=60	=60	=60	=60
*^	*	*	*
*ped	*	*	*	*
(>/4A-	1F	2..aa-\)	.	[
.	.	.	.	.
4c/	.	.	.	.
4f/ 4A-/	.	.	.	.
4c/)	.	.	.	.
*Xped	*	*	*	*
.	.	(>\8cc	.	.
!!LO:PB:g=original
=61	=61	=61	=61	=61
*2\right	*2\right	*2\right	*	*
*	*	*Xtuplet	*	*
!	!	!LO:TUP:a	!	!
!	!	!	!	!LO:DY:rj
/4B- 4G/	[<1F	13dd-M>^^>L\	.	p
.	.	13cc	.	.
.	.	13ccc	.	.
.	.	13bbn	.	.
4c/	.	.	.	.
!	!	!LO:TX:a:i:t=Leggiero.	!	!
.	.	13bb-X	.	.
.	.	13gg	.	.
.	.	13een	.	.
4en/ 4B-/	.	.	.	.
.	.	13dd-	.	.
.	.	13cc	.	.
.	.	13ddn	.	.
4c/	.	.	.	.
.	.	13ee	.	.
.	.	13ff	.	.
.	.	13ggJ	.	.
=62	=62	=62	=62	=62
!LO:TX:a:t=P:note position:4f/ 4A-/ przed 2F\]:problem	!	!	!	!
4f/ 4A-/	2F\]	4aa-\)	.	.
4c/	.	4r	.	.
.	.	.	.	.
!	!	!LO:TX:t=P:problem:w źródle łuk rozpoczyna się od 16qqgg	!	!
.	.	16qqgg/LL	.	.
.	.	16qqaan/JJ	.	.
*ped	*	*	*	*
!	!	!	!	!LO:DY:rj
!LO:S:s=1:note:problem:note-level slur	!	!	!	!
(>/4g-X 4An/	2E-	(>2aanyt>^<\	.	f
!LO:S:s=1:note:problem:note-level slur	!	!	!	!
.	.	.	.	.
!	!	!LO:TX:i:b:t=Cre_scen_do.:problem:dynamics with extention lines	!	!
!	!	!	!	!LO:HP:i:b:t=Cre_scen_do.:ext=ud
4c/)	.	.	.	<
*Xped	*	*	*	*
.	.	.	.	.
.	.	16qqgg/LL	.	.
.	.	16qqaa/JJ	.	.
*v	*v	*	*	*
=63	=63	=63	=63
*ped	*	*	*
(>\4f 4F\ 4Dn\	2bb-T>\	.	.
4B-\)	.	.	.
*Xped	*	*	*
.	.	.	.
.	16qqaa-/LL	.	.
.	16qqbb-/JJ	.	.
*ped	*	*	*
(>\4f 4Any\ 4Dn-X\	2bbnt>\	.	.
4Bn\)	.	.	.
*Xped	*	*	*
.	.	.	.
.	16qqaa#X/LL	.	.
.	16qqbb/JJ	.	.
=64	=64	=64	=64
*ped	*	*	*
(>\4f^> 4A-\ 4C\	4ccc'>\)	.	[
4c\	4rb	.	.
*clefG2	*	*	*
!	!	!	!LO:DY:t=ff>
4cc/	(>2ddd-	.	ff
4a-/)	.	.	.
*clefF4	*	*	*
*Xped	*	*	*
!!LO:LB:g=original
=65	=65	=65	=65
*ped	*	*	*
(>/4CC'<	2dd-\	.	]
4c\	.	.	.
*Xped	*	*	*
.	.	.	.
4en\ 4B-\ 4G\	2cc\	.	.
4c\)	.	.	.
=66	=66	=66	=66
*^	*	*	*
*ped	*	*	*	*
(>/4A-	1F	2ff\)	.	.
4c/	.	.	.	.
4f/ 4A-/	.	4r	.	.
*Xped	*	*	*	*
!	!	!LO:TX:b:i:t=m.v.	!	!
4c/)	.	(>\4cc	.	.
.	.	.	.	.
=67	=67	=67	=67	=67
(>/4B- 4G/	1F	4dd-M>^<\	.	.
!	!	!	!	!LO:HP:a
.	.	.	.	<
4c/	.	4cc\	.	.
4en/ 4B-/	.	4ff\	.	.
4c/)	.	4gg\	.	[
=68	=68	=68	=68	=68
(>/4A-	1F	2..aa-\)	.	.
4c/	.	.	.	.
4f/ 4A-/	.	.	.	.
4c/)	.	.	.	.
.	.	(>\8cc	.	.
=69	=69	=69	=69	=69
*	*	*Xtuplet	*	*
(>/4B- 4G/	1F	12dd-L\	.	pp
.	.	12cc	.	.
.	.	12ddnJ	.	.
4c/	.	12ccL\	.	<
.	.	12ee-	.	.
.	.	12ccJ	.	.
4en/ 4B-/	.	12eenL\	.	.
.	.	12cc	.	.
.	.	12ffJ	.	.
4c/)	.	12ccL\	.	.
.	.	12gg	.	.
.	.	12ccJ	.	[
!!LO:LB:g=original
=70	=70	=70	=70	=70
(>/4A-	1F	2..aa-\)	.	.
4c/	.	.	.	.
4f/ 4A-/	.	.	.	.
4c/)	.	.	.	.
.	.	(>8gg\	.	.
*v	*v	*	*	*
=71	=71	=71	=71
*ped	*	*	*
*	*tuplet	*	*
!	!LO:TUP:a	!	!
(>/4DD-'<	15ggL\	.	.
.	15aa-	.	.
!	!LO:TX:i:a:t=Dolciss.	!	!
.	15gg	.	.
.	15ff#X	.	.
4B-\	.	.	.
.	15gg	.	.
.	15bb-	.	.
.	15aa-	.	.
.	15een	.	.
4fn\ 4A-\	.	.	.
.	15gg	.	.
.	15ffn	.	.
.	15cc	.	.
.	15ee-	.	.
4B-\)	.	.	.
.	15dd-	.	.
.	15f#	.	.
*Xped	*	*	*
.	15gJ	.	.
.	.	.	.
=72	=72	=72	=72
*ped	*	*	*
(>/4EE-'<	4cc'>\ 4a-\)	.	.
4E-\	4rb	.	.
4a-\ 4c\	2ccc^<\ 2ee-\	.	.
.	.	.	.
4E-\)	.	.	.
*Xped	*	*	*
.	.	.	.
=73	=73	=73	=73
*	*tuplet	*	*
*ped	*	*	*
!	!LO:TX:a:t=P:brak klamry przy wszystkich triolach:problem	!	!
!	!LO:TUP:a	!	!
!	!LO:TX:b:i:t=Con\ Forza.:dur=1q1e:ext=s:problem	!	!
(>/4EE-'<	6bbn^>\ 6ddn\	.	.
.	6bb-X^>\ 6dd-X\	.	.
4E-\	.	.	.
.	6gg^>\ 6b-\	.	.
!	!LO:TUP:a	!	!
4e-\ 4B-\	6ff^>\ 6dd-\	.	.
.	6ee-^>\ 6g\	.	.
4E-\)	.	.	.
.	12rb	.	.
*Xped	*	*	*
.	12dd-\ 12b-\	.	.
!!LO:LB:g=original
=74	=74	=74	=74
*ped	*	*	*
.	16qqc/	.	.
.	[<8qqc/L	.	.
.	[<8qqe-/	.	.
.	[<8qqa-/J	.	.
(>/4AAA-	2..cc^>/ 2..a-/] 2..e-/] 2..c/]	.	.
4E-\	.	.	.
4c\ 4A-\ 4C\	.	.	.
4E-\)	.	.	.
*Xped	*	*	*
!	!LO:TX:i:b:t=m.v.	!	!
.	(>\8cc	.	.
=75	=75	=75	=75
!	!LO:TX:a:t=P:brak klamry przy wszystkich triolach:problem	!	!
!	!LO:TUP:a	!	!
*ped	*	*	*
/4CC'<	6dd-^<T>\	.	.
.	.	.	.
.	6cc\	.	.
(>4c\	.	.	.
.	.	.	.
.	6ddn\	.	.
!	!LO:TUP:a	!	!
4en\ 4B-\	6een\	.	<
.	6ff\	.	.
4c\)	.	.	.
*Xped	*	*	*
.	6gg\	.	.
=76	=76	=76	=76
*^	*	*	*
!LO:TX:a:t=P:note position:(>/4A- przed 1F:problem	!	!	!	!
*ped	*	*	*	*
(>/4A-	1F	2..aa-\)	.	[
4c/	.	.	.	.
4f/ 4A-	.	.	.	.
4c/)	.	.	.	.
*Xped	*	*	*	*
.	.	(>\8cc	.	.
=77	=77	=77	=77	=77
*	*	*^	*	*
*	*	*Xtuplet	*	*	*
!	!	!	!	!	!LO:DY:t=f>
(>/4B- 4G/	1F	12cccL\	4ryy	.	f
.	.	12cc	.	.	.
.	.	12cc#XJ	.	.	.
.	.	.	.	.	.
4cn/	.	12ddnL\	4ddn/	.	.
.	.	12dddny	.	.	.
.	.	12eee-J 12ee-	.	.	.
4en/ 4B-/	.	12eeenL\	4ryy	.	<
.	.	12een	.	.	.
.	.	12ffJ	.	.	.
4c/)	.	12ff#XL\	12ryy	.	.
.	.	12gg	6gg/	.	.
.	.	12gggJ	.	.	.
.	.	.	.	.	[[
*	*	*v	*v	*	*
=78	=78	=78	=78	=78
!LO:TX:a:t=P:note position:4f/ 4A-/ przed 2F\:problem	!	!	!	!
4f/ 4A-/	2F\	4aaa-'> 4aa-)	.	.
4c/	.	4r	.	.
.	.	(>(<16qqaan/	.	.
*ped	*	*	*	*
!LO:S:s=1:note:problem:note-level slur	!	!	!	!
!LO:TX:t=P:rendering:złe wyświetlanie łuku:problem	!	!	!	!
/4g-X: 4An:/	2E-\	2aant^<\)	.	.
!	!	!	!	!LO:HP:t=cres
4c/	.	.	.	<
.	.	.	.	.
.	.	16qqgg#X/LL	.	.
.	.	16qqaa/JJ	.	.
*Xped	*	*	*	*
*v	*v	*	*	*
!!LO:LB:g=original
=79	=79	=79	=79
*ped	*	*	*
(>\4f: 4F:\ 4Dn:\	\2bb-T^<	.	.
4B-\)	.	.	.
*Xped	*	*	*
.	.	.	.
.	16qqaany/LL	.	.
.	16qqbb-/JJ	.	.
*ped	*	*	*
(>\4f: 4A-:\ 4D-X:\	2bbnt\	.	.
4Bn\)	.	.	.
.	.	.	.
.	16qqaa#X/LL	.	.
.	16qqbb/JJ	.	.
*Xped	*	*	*
=80	=80	=80	=80
.	8qcc/	.	.
*	*8va	*	*
*ped	*	*	*
4f:\ 4A-:\ 4C:\	4cccc'>: 4ccc:\)	.	.
4c\	4rbb	.	.
4a-\	2dddd-^<\ 2ddd-\	.	.
4f\	.	.	.
*Xped	*	*	*
.	.	.	.
=81	=81	=81	=81
*ped	*	*	*
4en^>:\ 4B-:\ 4G:\ 4C:\	17cccLL\	.	.
.	17cccc	.	.
.	17bbbn	.	.
.	17bbb-X	.	.
.	17ggg	.	.
4r	.	.	.
.	17eeen	.	.
.	17ccc	.	.
!	!LO:TX:a:i:t=loco.	!	!
.	17bbbn	.	.
*	*X8va	*	*
.	17bb-X	.	.
2r	.	.	.
.	17gg	.	.
.	17een	.	.
.	17cc	.	.
.	17bn	.	.
.	.	.	.
.	17b-X	.	.
.	17g	.	.
.	17en	.	.
*Xped	*	*	*
.	17d-XJJ	.	.
=82	=82	=82	=82
*	*ped	*	*
!	!LO:TX:t=P:problem:zdjęcie pedału powinno wyświetlać się pod łukiem	!	!
1r	(<2ct>^>/	.	.
*	*Xped	*	*
.	.	.	.
.	16qqB-/LL	.	.
.	16qqc/JJ)	.	.
*	*ped	*	*
.	(<4d-T>^>/	.	<
*	*Xped	*	*
.	.	.	.
.	16qqc/LL	.	.
.	16qqd-/JJ)	.	.
*	*ped	*	*
.	(<4dnt>^>/	.	.
.	16qqc#X/LL	.	.
.	16qqd/JJ)	.	[
*	*Xped	*	*
!!LO:PB:g=original
=83	=83	=83	=83
!	!LO:TX:a:i:t=Legato.	!	!
*ped	*	*	*
12AA-L\	(>12e-M>^<L/	.	.
12c	12dn	.	.
12E-J	12e-	.	.
*Xped	*	*	*
.	.	.	.
12DnL\	12cc	.	.
12c	12b-	.	<
12E-J	12a-J	.	.
.	.	.	.
*ped	*	*	*
12BB-L\	12gL/	.	.
12d-X	12ff/	.	.
12E-J	12een/J	.	.
*Xped	*	*	*
12DnL\	4ee-X/)	.	[
12d-X	.	.	.
12E-J	.	.	.
=84	=84	=84	=84
*ped	*	*	*
12AA-L\	(>12e-M>^<L/	.	.
12c	12d-	.	.
12E-J	12e-	.	.
*Xped	*	*	*
.	.	.	.
12DnL\	12cc\	.	.
12c	12b-	.	<
12E-J	12a-J	.	.
.	.	.	.
*ped	*	*	*
12BB-L\	12gL/	.	.
12d-X	12ff/	.	.
12E-J	12een/J	.	.
*Xped	*	*	*
.	.	.	.
12DnL\	4ee-X/)	.	[
12d-X	.	.	.
12E-J	.	.	.
=85	=85	=85	=85
*ped	*	*	*
12CL\	(>12ee-M>L\	.	.
12e-	12ddn	.	.
12A-J	12ee-J	.	.
*Xped	*	*	*
.	.	.	.
*ped	*	*	*
12CL\	12cccL\	.	>
12en	12gg	.	.
12A-J	12bb-J	.	.
*Xped	*	*	*
.	.	.	.
*ped	*	*	*
12D-L\	12aa-L\	.	.
12f	12een	.	]
12B-J	12ggJ	.	.
12A-L\	12ffL\	.	.
12f	12cc	.	.
12B-J	12eeJ	.	.
*Xped	*	*	*
!!LO:LB:g=original
=86	=86	=86	=86
*^	*	*	*
2ryy	12D-L\	12dd-L/	.	.
.	12d-	12f	.	.
.	12B-J	12gJ	.	.
.	12FL\	12a-L/	.	.
.	12d-	12cc	.	.
.	12B-J	12b-J	.	.
!	!LO:N:vis=3	!	!	!
2E-/	12E-L\	12a-L/	.	.
.	12d-	12f	.	.
.	12B-J	12a-J	.	.
.	12GL\	12gL/	.	.
.	12d-X	12dn	.	.
.	12B-J	12fJ	.	]
*v	*v	*	*	*
=87	=87	=87	=87
12AA-L\	12e-M>^<L/	.	.
12c	12dn	.	.
12E-J	12e-	.	.
12DnL\	12cc\	.	<
.	.	.	.
12c	12b-	.	.
12E-J	12a-J	.	.
12BB-L\	12gL/	.	.
12d-X	12ff/	.	.
12E-J	12een/J	.	.
12DnL\	4ee-X/)	.	[[
12d-X	.	.	.
12E-J	.	.	.
=88	=88	=88	=88
12AA-L\	(>12e-M>L/	.	.
12c	12dn	.	.
12E-J	12e-	.	<
12DnL\	12cc\	.	.
.	.	.	.
12c	12b-	.	.
12E-J	12a-J	.	.
12BB-L\	12gL/	.	.
12d-X	12ff/	.	.
12E-J	12een/J	.	.
12DnL\	4ee-X/)	.	[
12d-X	.	.	.
12E-J	.	.	.
!!LO:LB:g=original
=89	=89	=89	=89
12C-XL\	(>12ee-M>L\	.	<
12e-	12ddn	.	.
12AnJ	12ee-J	.	.
12F#XL\	12eenL\	.	.
12e-	12ff	.	.
.	.	.	.
12AJ	12ff#XJ	.	.
12BB-L\	12ggL\	.	[
12e-	12ggg	.	.
12B-J	12dddnyJ	.	.
12GL\	12eee-L\	.	.
12e-	12bbn	.	.
12B-J	12cccJ	.	.
=90	=90	=90	=90
*^	*	*	*
2.ryy	12BB-L\	12ggL\	.	>
.	12dn	12bb-	.	.
.	12B-J	12aa-J	.	.
.	12A-XL\	12ffL\	.	.
.	12d	12cc	.	.
.	12B-J	12ddnJ	.	]
.	12E-L\	12ee-L\	.	.
.	12g	12b-	.	<
.	12e-J	12bnJ	.	.
4B-/	12B-L\	12ccL\	.	.
.	12g	12cc#X	.	.
.	12e-J	12ddJ	.	[[
=91	=91	=91	=91	=91
4c/	12cL\	12ee-L\	.	>
.	12g-X	12een	.	.
.	12e-J	12ffJ	.	.
4B-/	12B-L\	[>\4gg-X)	.	.
.	12g-	.	.	.
.	12e-J	.	.	.
4An	12AnL\	(>12gg-L\]	.	.
.	12f	12ee	.	]
.	.	.	.	.
.	12e-J	12ffJ	.	.
.	.	.	.	>
4B-/	12B-L\	[>\4ccc)	.	.
.	12g-	.	.	]]
.	12e-J	.	.	.
=92	=92	=92	=92	=92
4An	12AnL\	(>12cccL\]	.	>
.	12f	12ee-	.	.
.	12cJ	12ffJ	.	.
.	.	16qqaa-/	.	.
4F	12FL\	12gg-XL\	.	.
.	12f	12ff	.	.
.	12cJ	12ee-J	.	]
4B-	12B-L\	12ffL\	.	.
.	12f	12cc	.	.
.	12d-J	12ee-J	.	.
4A-	12A-XL\	[>\4dd-^<)	.	.
.	12f-X	.	.	.
.	12B-J	.	.	.
!!LO:LB:g=original
=93	=93	=93	=93	=93
4Gny/	12GnyL\	(>12dd-L\]	.	.
.	.	.	.	.
.	12e-	12cc	.	.
.	12B-J	12dd-J	.	.
4A-/	12A-L\	\[>4ff-X)	.	.
.	12f-X	.	.	.
.	12c-XJ	.	.	.
4G/	12GL\	(>12ff-L\]	.	.
.	12e-	12ddn	.	.
.	12B-J	12ee-J	.	.
4Fny/	12FnyL\	[>4bb-\	.	.
.	12dn	.	.	.
.	12A-J	.	.	.
=94	=94	=94	=94	=94
4F-/	12F-XL\	12bb-L\]	.	>
.	12d-X	12dd-X	.	.
.	12A-J	12ee-J	.	.
.	.	16qqgg/	.	.
4E-/	12E-L\	12ffL\	.	.
.	12d-	12ee-	.	.
.	12GJ	12dd-J	.	.
4AA-/	12AA-L\	12ee-L\	.	.
.	12c	12b-	.	]
.	12A-J	12dd-J)	.	.
.	.	.	.	.
4En/	12EnL\	[>4cc^<\	.	.
.	12c	.	.	.
.	12A-J	.	.	.
=95	=95	=95	=95	=95
4F/	12FL\	(>12ccL\]	.	.
.	12c	12g	.	.
.	12A-J	12a-J	.	.
4BB-/	12BB-L\	12ccL\	.	.
.	12dn	12b-	.	.
.	12A-J	12a-J	.	.
.	.	.	.	.
4E-/	12E-L\	12gL\	.	<
.	12e-	12b-	.	.
.	12B-J	12ccJ	.	.
4G/	12GL\	12dd-XL\	.	.
.	12e-	12ff	.	.
.	12B-J	12ee-J	.	[
=96	=96	=96	=96	=96
4A-/	12A-L\	12ccL\	.	.
.	12e-	12g	.	.
.	12cJ	12a-J	.	.
.	.	.	.	.
4F/	12FL\	12ccL\	.	.
.	12dn	12b-	.	.
.	.	.	.	.
.	12B-J	12a-J	.	.
4E-/	12E-L\	12gL\	.	.
.	12e-	12b-	.	.
.	12B-J	12ccJ	.	.
4G/	12GL\	12dd-XL\	.	.
.	12e-	12ff	.	.
.	12B-J	12ee-J	.	.
!!LO:LB:g=original
=97	=97	=97	=97	=97
*	*	*^	*	*
4A-	12A-L\	4ryy	12ccL\	.	.
.	12e-	.	12bn	.	.
.	12cJ	.	12ccJ	.	.
4A-	12A-L\	4ff-X^>/	12ff-XL\	.	>
.	12f-X	.	12b-X	.	.
.	12c-XJ	.	12cc-XJ	.	.
4G	12GL\	4ee-^>/	12ee-L\	.	.
.	12e-	.	12an	.	.
.	12B-J	.	12b-J	.	.
4G-X	12G-XL\	4ee--^>/	12ee--L\	.	.
.	12e--	.	12a-X	.	]
.	12B--J	.	12b--J	.	.
=98	=98	=98	=98	=98	=98
4F	12FL\	4dd-^>/	12dd-L\	.	.
.	12d-	.	12g	.	.
.	12A-J	.	12a-J	.	.
4G-X	12G-XL\	4ee--^>/	12ee--L\	.	.
.	12e--	.	12a-	.	.
.	12B--J	.	12b--J	.	.
4F	12FL\	4dd-^>/	12dd-L\	.	.
.	12d-	.	12g	.	.
.	12A-J	.	12a-J	.	.
4En	12EnL\	4cc^>/	12ccL\	.	.
.	.	.	.	.	.
.	12c	.	12f#X	.	.
.	12GnJ	.	12gJ	.	.
=99	=99	=99	=99	=99	=99
4D#/	12D#XL\	4bn/	12bn^>L\	.	.
.	12Bn	.	12fn	.	.
.	12F#XJ	.	12f#XJ	.	.
4En/	12EnL\	4ccn/	12ccn^>L\	.	>
.	12c	.	12f#X	.	.
.	12GJ	.	12gnJ	.	.
4E-X/	12E-XL\	4cc-X/	12cc-X^>L\	.	.
.	12c-X	.	12fn	.	.
.	12G-XJ	.	12g-XJ	.	.
4Dn/	12DnL\	4b-n/	12b-n^>L\	.	.
.	.	.	.	.	.
.	12B-X	.	12en	.	.
.	12FnJ	.	12fnJ)	.	]
*	*	*v	*v	*	*
*v	*v	*	*	*
!!LO:LB:g=original
=100	=100	=100	=100
12D-XL\	(>12fL/	.	<
12B-	12g	.	.
12FJ	12a-J	.	.
12BB-L\	12b-L/	.	.
12d-	12cc/	.	.
12FJ	12dd-/J	.	.
12E-L\	4cc/	.	[
12c	.	.	.
12A-J	.	.	.
12E-L\	4b-/)	.	.
12d-	.	.	.
12GJ	.	.	.
=101	=101	=101	=101
12AA-L\	(>12e-M>^<L/	.	.
12c	12dn	.	.
12E-J	12e-	.	.
12DnL\	12cc\	.	<
12c	12b-	.	.
12E-J	12a-J	.	.
12BB-L\	12gL/	.	.
12d-X	12ff/	.	.
12E-J	12een/J	.	.
12DnL\	4ee-X/	.	[
12d-X	.	.	.
12E-J	.	.	.
=102	=102	=102	=102
12AA-L\	12e-^<M>L/	.	.
12c	12dn	.	.
12E-J	12e-	.	.
12DnL\	12cc	.	<
12c	12b-	.	.
12E-J	12a-J	.	.
12CL\	12anL/	.	.
12e-	12gg-X/	.	.
.	.	.	.
12AnJ	12eenJ	.	.
12FL\	4ff/)	.	[
12e-	.	.	.
12AJ	.	.	.
!!LO:PB:g=original
=103	=103	=103	=103
!	!LO:TX:i:b:t=Crescen_do_:problem:dynamics with extention lines 	!	!
!	!	!	!LO:HP:i:b:t=Crescen_do_:ext=ud
*ped	*	*	*
12Dn^^>L\	(>12b-^^>M>L\	.	<
12f	12an	.	.
*Xped	*	*	*
12B-J	12b-J	.	.
*ped	*	*	*
12E-^^>L\	12aa-XL	.	.
12g	12ff#X	.	.
*Xped	*	*	*
12B-J	12ggJ	.	.
*ped	*	*	*
12En^^>L\	12ccm>^^>L\	.	.
12g	12bn	.	.
*Xped	*	*	*
12cJ	12ccJ	.	.
*ped	*	*	*
12Fn^^>L\	12bb-XL	.	.
12a-	12gg	.	.
*Xped	*	*	*
12cJ	12aa-J	.	.
.	.	.	[[
*clefG2	*	*	*
=104	=104	=104	=104
*ped	*	*	*
12G^^>L/	12ddn^>L\	.	.
12dd-	12ee-	.	.
12gJ	12ffJ	.	.
12e-L/	12ggL\	.	.
12dd-	12aa-	.	.
12gJ	12aanJ	.	.
12B-L/	12bb-L\	.	.
12dd-	12ccc	.	.
12fJ	12ddd-XJ	.	.
12e-L/	12dddnL\	.	.
12dd-	12fff	.	.
*Xped	*	*	*
12gJ	12eee-J	.	.
=105	=105	=105	=105
*	*8va	*	*
*ped	*	*	*
!LO:TX:t=P:ped. przed nutą:problem	!	!	!
!	!LO:TX:a:t=+:problem	!	!
12A-^^>L/	12eee-L\	.	.
12cc	12cccc^^>	.	.
!	!LO:TX:a:t=+:problem	!	!
12a-J	12ddd-J	.	.
12e-L/	12bbb-^^>L\	.	.
!	!LO:TX:a:t=+:problem	!	!
12cc	12ccc	.	.
*Xped	*	*	*
12a-J	12aaa-^^>J	.	.
.	.	.	.
*clefF4	*	*	*
*ped	*	*	*
!	!LO:TX:a:t=+:problem	!	!
12C^^>L\	12bb-L\	.	.
12en	12ggg^^>	.	.
!	!LO:TX:a:t=+:problem	!	!
12cJ	12aa-J	.	.
12B-L\	12fff^^>L\	.	.
!	!LO:TX:a:t=+:problem	!	!
12e	12gg	.	.
*Xped	*	*	*
12cJ	12eeen^^>J	.	.
!!LO:LB:g=original
=106	=106	=106	=106
*ped	*	*	*
12F^>L\	12cccL\	1	.
12f	12aaa-^^>	.	.
!	!LO:TX:a:t=+:problem	!	!
12cJ	12bb-J	.	.
12A-L\	12ggg^^>L\	.	.
!	!LO:TX:a:t=+:problem	!	!
12f	12aa-	.	.
*Xped	*	*	*
12cJ	12fff^^>J	.	.
*	*X8va	*	*
*ped	*	*	*
!	!LO:TX:a:i:t=loco.	!	!
!LO:TX:a:t=P:problem:mixed beam	!LO:TX:b:i:t=poco\ ritenuto.:dur=2q:ext=s:problem	!	!
12AAn^^>L/	12gg-XL\	.	.
12c\	12eee-X^^>	.	.
12G-X\J	12ffJ	.	.
12E-L\	12ddd-^^>L\	.	.
12c	12ee-	.	.
12G-J	12ccc^^J	.	.
*Xped	*	*	*
.	.	.	.
=107	=107	=107	=107
*	*	*	*^
*ped	*	*	*	*
12BB-^^>L\	12eee-L\	.	.	.
12d-	12ddd-	.	.	.
*Xped	*	*	*	*
12FJ	12fffJ	3	.	.
*ped	*	*	*	*
12C^^>L\	12ddd-L\	1	>	>
!	!LO:TX:a:t=+:problem	!	!	!
12e-	12ccc	.	.	.
*Xped	*	*	*	*
12AnJ	12eee-J	.	.	.
*ped	*	*	*	*
!	!LO:TX:i:b:t=acce_le_ran_do.:dur=7q:ext=ud:problem:text with line extensions	!	!	!
12D-^^>L\	12cccL\	1	.	.
!	!LO:TX:a:t=+:problem	!	!	!
12f	12bb-	.	.	.
12B-J	12ddd-J	.	.	.
12A-XL\	12bb-L\	.	.	.
!	!LO:TX:a:t=+:problem	!	!	!
12f	12aa-X	.	.	.
12B-J	12cccJ	.	.	.
=108	=108	=108	=108	=108
12D-L\	12aa-L\	.	.	.
12f	12gg	.	.	.
12B-J	12bb-J	.	.	.
12A-L\	12ggL\	.	.	.
12f	12ff	.	.	.
12B-J	12aa-J	.	.	.
12D-L\	12ffL\	.	.	.
12f	12ee-	.	.	.
12B-J	12ggJ	.	]	.
12A-L\	12ee-L\	.	.	.
12f	12dd-	.	.	.
12B-J	12ffJ	.	.	.
*Xped	*	*	*	*
*	*	*	*v	*v
!!LO:LB:g=original
=109	=109	=109	=109
*^	*	*	*
!	!	!	!	!LO:DY:rj
4ryy	12E-L\	12dd-L\	.	p
.	12e-	12cc	.	.
.	12A-J	12ee-J	.	.
*	*ped	*	*	*
4Dn	12DnL\	12dd--L\	.	.
.	12f-X	12cc-X	.	.
*	*Xped	*	*	*
.	12A-J	12ff-XJ	.	.
4E-	12E-L\	12dd-XL\	.	.
.	12e-	12ccn	.	.
.	12A-J	12ee-J	.	.
.	.	.	.	.
*	*ped	*	*	*
4Dny	12DnyL\	12dd--L\	.	.
.	12f-	12cc-X	.	.
.	12A-J	12ff-J	.	.
*	*Xped	*	*	*
.	.	.	.	.
=110	=110	=110	=110	=110
4E-/	12E-L\	12dd-XL\	.	.
.	12e-	12ccn	.	.
.	12A-J	12ee-J	.	.
*ped	*	*	*	*
4Dn/	12DnL\	12dd--L\	.	.
.	12f-X	12cc-X	.	.
.	12A-J	12ff-XJ	.	.
*Xped	*	*	*	*
.	.	.	.	.
4E-/	12E-L\	12dd-XL\	.	.
.	12e-	12ccn	.	.
.	12A-J	12ee-J	.	.
*ped	*	*	*	*
4Dny/	12DnyL\	12dd--L\	.	.
.	12f-	12cc-X	.	.
.	12A-J	12ff-XJ	.	.
*Xped	*	*	*	*
=111	=111	=111	=111	=111
*	*	*^	*	*
4E-/	12E-L\	12ryy	12dd-XL\	.	.
.	12e-	12ryy	12ccn	.	.
.	12A-J	4ee-/	12ee-J	.	.
*ped	*	*	*	*	*
4Dn/	12DnL\	.	12dd--L\	.	.
!	!	!	!LO:TX:b:i:t=smorz.	!	!
.	12f-	.	12cc-X	.	.
.	12A-J	4ff-X/	12ff-XJ	.	.
*Xped	*	*	*	*	*
.	.	.	.	.	.
4E-/	12E-L\	.	12dd-XL\	.	.
.	12e-	.	12ccn	.	.
.	12A-J	4ee-/	12ee-J	.	.
*ped	*	*	*	*	*
4Dny/	12DnyL\	.	12dd--L\	.	.
.	12f-	.	12cc-	.	.
!	!	!LO:N:vis=6	!	!	!
.	12A-J	12ff-/	12ff-J	.	.
*Xped	*	*	*	*	*
.	.	.	.	.	.
!!LO:LB:g=original
=112	=112	=112	=112	=112	=112
4ryy	12E-L\	12ryy	12dd-XL\	.	.
.	12e-	12ryy	12ccn	.	.
.	12A-J	6ryy	12ee-J	.	.
*ped	*	*	*	*	*
2.ryy	12DnL\	.	12dd--L\	.	.
.	12en^>	12ryy	12cc-	.	.
!	!	!LO:N:vis=6	!	!	!
.	12A-J	12ryy	12eenJ	.	.
*Xped	*	*	*	*	*
.	.	.	.	.	.
.	8f`>\	8ryy	8ff`>\)	.	.
.	8r;>	8r;>	8ryy	.	.
.	4B-\ 4E-X\	(>/4g^< (<4d-/	4ryy	.	.
*v	*v	*	*	*	*
=113	=113	=113	=113	=113
*ped	*	*	*	*
12AA-L\	8a-/) 8c/)	4ryy	.	.
12c	.	.	.	.
.	8r	.	.	.
12E-J	.	.	.	.
!	!	!	!	!LO:DY:rj
12DnL\	(>12ccL/	4g	.	p
12d-X	12dd-	.	.	.
12E-J	12b-J	.	.	.
12AA-L\	4ee-^>/	12a-L	.	.
12c	.	12e-	.	.
12E-J	.	12a-J	.	.
12DnL\	12ccL/	4g	.	.
12d-X	12dd-	.	.	.
12E-J	12b-J	.	.	.
=114	=114	=114	=114	=114
12AA-L\	4ee-^>/	12a-L	.	<
12c	.	12e-	.	.
12E-J	.	12a-J	.	.
12DnL\	12ccL/	4g	.	.
12d-X	12dd-	.	.	.
12E-J	12b-J	.	.	.
12AA-L\	4ee-^>/	12a-L	.	.
12c	.	12e-	.	.
12E-J	.	12a-J	.	.
12DnL\	12ccL/	4g	.	.
12d-X	12dd-	.	.	.
12E-J	12b-J	.	.	.
*	*v	*v	*	*
!!LO:LB:g=original
=115	=115	=115	=115
8c:\ 8E-:\ 8AA-:\	8aa-'>\ 8a-'>\)	.	[[
*Xped	*	*	*
.	.	.	.
8r	8rb	.	.
.	.	.	.
!	!	!	!LO:DY:rj
(<4CC 4C/	(>/4g 4en/ 4c/	.	p
4F/ 4FF/	4a-/ 4f/ 4c/	.	.
4E-X/ 4EE-X/	4b-/ 4g/ 4d-/	.	.
=116	=116	=116	=116
4AA-/ 4AAA-/	4cc/ 4a-/ 4c/	.	.
4C/ 4CC/	4g/ 4en/ 4c/	.	.
4F/ 4FF/	4a-/ 4f/ 4c/	.	.
4E-X/ 4EE-X/	4b-/ 4g/ 4d-/	.	.
=117	=117	=117	=117
*	*^	*	*
*ped	*	*	*	*
8AA-/) 8AAA-/	8cc 8a- 8c)	4ryy	.	.
8r	8rb	.	.	.
12AA-L\	(>12ccL/	4g	.	.
12d-	12dd-	.	.	.
12E-J	12b-J	.	.	.
12AA-L\	4ee-^>/	12a-L	.	.
12c	.	12e-	.	.
12E-J	.	12a-J	.	.
12DnL\	12ccL/	4g	.	<
12d-X	12dd-	.	.	.
12E-J	12b-J	.	.	.
=118	=118	=118	=118	=118
12AA-L\	4ee-^>/	12a-L	.	.
12c	.	12e-	.	.
12E-J	.	12a-J	.	.
12DnL\	12ccL/	4g	.	.
12d-X	12dd-	.	.	.
12E-J	12b-J	.	.	.
12AA-L\	4ee-^>/	12a-L	.	.
12c	.	12e-	.	.
12E-J	.	12a-J	.	.
12DnL\	12ccL/	4g	.	.
12d-X	12dd-	.	.	.
12E-J	12b-J	.	.	.
*	*v	*v	*	*
=119	=119	=119	=119
*ped	*	*	*
!LO:TX:t=P:ped. przed nutą:problem	!	!	!
8c:\ 8E-:\ 8AA-:\	8ccc'>\ 8ee-'>\ 8a-'>\)	.	[[
*Xped	*	*	*
8r	8rb	.	.
4CC 4C/	(>/4g 4en/ 4c/	.	p
4F/ 4FF/	4a-/ 4f/ 4c/	.	.
4E-X/ 4EE-X/	4b-/ 4g/ 4d-/	.	.
!!LO:LB:g=original
=120	=120	=120	=120
(<4AA-/ 4AAA-/	4cc/ 4a-/ 4c/	.	.
4C/ 4CC/	4g/ 4en/ 4c/	.	.
4F/ 4FF/	4a-/ 4f/ 4c/	.	.
4E-X/ 4EE-X/	4b-/ 4g/ 4d-/	.	.
=121	=121	=121	=121
4AA'<-/) 4AAA-/	4cc'</ 4a-'</ 4c'</)	.	.
4r	4rb	.	.
2r	2rb	.	.
=122	=122	=122	=122
4r	4rb	.	.
.	.	.	.
(<4C'</ 4CC'</	(>/4g'> 4en'>/ 4c'>/	.	.
4F'</ 4FF'</	4a-'>/ 4f/ 4c/	.	.
4E-X'</ 4EE-X'</	4b-'>/ 4g/ 4d-/	.	.
=123	=123	=123	=123
4AA-'</) 4AAA-'</	4cc'>/) 4a-/ 4c/	.	.
4r	4rb	.	.
2r	2rb	.	.
=124	=124	=124	=124
2r	2rb	.	.
!	!LO:TX:b:i:t=smorz.	!	!
4F'>\ 4FF'>\	(>/4a-'> 4f'>/ 4c'>/	.	.
4E-'>\ 4EE-'>\	4b-'>/ 4g/ 4d-/	.	.
*ped	*	*	*
=125	=125	=125	=125
4AA-'</ 4AAA-'</	4cc'>/ 4a-'>/ 4c/'>)	.	.
4r	4rb	.	.
2r	2rb	.	.
=126	=126	=126	=126
(>4E-'>\ 4AA-'>\	(>/4cc'> 4a-/ 4c/	.	.
4r	4r	.	.
4E-'>\ 4AA-'>\	4cc'>/ 4a-/ 4c/	.	.
4r	4r	.	.
=127	=127	=127	=127
!LO:TX:B:a:t=Fine.	!	!	!
1E-; 1AA-);	1cc; 1a-; 1c;)	.	.
==	==	==	==
*-	*-	*-	*-
!!title: @{OTL}; @{OPS} @{ONM} publisher: @{PPR}
!!!system-decoration: {s1,s2}
!!!RDF**kern: > = above
!!!RDF**kern: < = below
!!!RDF**dynam: < = "Cres", 'fontstyle="italic"
!!!RDF**dynam: > = "Dim.", 'fontstyle="italic"
!!!ENC: Antoni Szymański
!!!END: 2020-10-24
